static/img/platform/security/defensive.svg

<svg xmlns="http://www.w3.org/2000/svg" xml:space="preserve" style="fill-rule:evenodd;clip-rule:evenodd;stroke-linejoin:round;stroke-miterlimit:2" viewBox="0 0 32 32"><path d="M32 16c0-8.831-7.169-16-16-16S0 7.169 0 16s7.169 16 16 16 16-7.169 16-16" style="fill:#fbed53;fill-opacity:.1"/><path d="m16 7.477 7.498 3.041v4.507a9.87 9.87 0 0 1-2.125 5.936A10.67 10.67 0 0 1 16 24.578c-2.146-.635-4.026-1.902-5.372-3.617a9.87 9.87 0 0 1-2.126-5.936v-4.507zm0-1.433a1.8 1.8 0 0 0-.589.11L7.913 9.196a1.47 1.47 0 0 0-.667.528 1.38 1.38 0 0 0-.246.794v4.507a11.2 11.2 0 0 0 2.417 6.8c1.544 1.964 3.704 3.407 6.167 4.12.272.073.56.073.832 0 2.464-.713 4.626-2.158 6.17-4.124A11.2 11.2 0 0 0 25 15.014v-4.496a1.4 1.4 0 0 0-.245-.794 1.5 1.5 0 0 0-.668-.528L16.589 6.11A1.8 1.8 0 0 0 16 6z" style="fill:#fbd153;fill-rule:nonzero"/></svg>

<?xml version="1.0" encoding="UTF-8" standalone="no"?>
<!DOCTYPE svg PUBLIC "-//W3C//DTD SVG 1.1//EN" "http://www.w3.org/Graphics/SVG/1.1/DTD/svg11.dtd">
<svg width="100%" height="100%" viewBox="0 0 32 32" version="1.1" xmlns="http://www.w3.org/2000/svg" xmlns:xlink="http://www.w3.org/1999/xlink" xml:space="preserve" xmlns:serif="http://www.serif.com/" style="fill-rule:evenodd;clip-rule:evenodd;stroke-linejoin:round;stroke-miterlimit:2;">
    <path d="M32,16C32,7.169 24.831,0 16,0C7.169,0 0,7.169 0,16C0,24.831 7.169,32 16,32C24.831,32 32,24.831 32,16Z" style="fill:rgb(251,237,83);fill-opacity:0.1;"/>
    <path d="M16,7.477L23.498,10.518L23.498,15.025C23.463,17.168 22.719,19.245 21.373,20.961C20.026,22.676 18.146,23.943 16,24.578C13.854,23.943 11.974,22.676 10.628,20.961C9.281,19.245 8.537,17.168 8.502,15.025L8.502,10.518L16,7.477ZM16,6.044C15.798,6.048 15.599,6.085 15.411,6.154L7.913,9.196C7.64,9.305 7.408,9.489 7.246,9.724C7.083,9.96 6.998,10.236 7,10.518L7,15.025C7.027,17.479 7.874,19.862 9.417,21.825C10.961,23.789 13.121,25.232 15.584,25.945C15.856,26.018 16.144,26.018 16.416,25.945C18.88,25.232 21.042,23.787 22.586,21.821C24.13,19.855 24.976,17.47 25,15.014L25,10.518C25.002,10.236 24.917,9.96 24.755,9.724C24.592,9.489 24.36,9.305 24.087,9.196L16.589,6.11C16.401,6.041 16.202,6.004 16,6L16,6.044Z" style="fill:rgb(251,209,83);fill-rule:nonzero;"/>
</svg>
